X:337
T: Kilworth Reel
N: O'Farrell's Pocket Companion v.4 (Sky ed. p.147)
N: "Irish"
% This is the only "Irish reel" in the PC!
M: C
L: 1/8
Q: 350
R: reel
K: Gdor
G2BG dGBG| F2AF cFAF| G2BG dGBG| ABAG FD G2 :|
gfgd BGGd| fefc AFF2| gfgd BGGB| ABAG FD G2 :|
